X: 162
T: Polska frn Transtrand efter Omas Ludvig
S: efter Omas Ludvig Larsson
O: Dalarna, Transtrand
R: Polska
D: Hedningarna
Z: Hkan Lidn, 2008-09-28
M: 9/8
L: 1/4
K: Ddor
A a/-a b/ a g/ | e/f/ g a g e/ | ^c/d/ e f d e/ | ^c/B/c/ A3 |
A a/-a b/ a g/ | e/f/ g a g e/ | ^c/d/ e f d e/ | ^c/B/c/ d3 :|
|: A ^c e d B/ | B G/ B/ d ^c3/2 | A ^c e d B/ | B/G/ B A A3/2 | 
A ^c e d B/ | B G/ B/ d ^c3/2 | A ^c/ e/ f d e/ | ^c/B/c/ d3 :|
